public/assets/gas3.svg

<svg width="123" height="102" viewBox="0 0 123 102" fill="none" xmlns="http://www.w3.org/2000/svg">
<path d="M111.784 101.692H2.09678C0.931361 101.692 -0.000976562 100.746 -0.000976562 99.5947V28.1886C-0.000976562 27.0232 0.945072 26.0908 2.09678 26.0908H111.784C112.949 26.0908 113.881 27.0369 113.881 28.1886V99.5947C113.895 100.76 112.949 101.692 111.784 101.692Z" fill="url(#paint0_linear_57_248)"/>
<path d="M13.1481 96.5239H9.65179C8.99367 96.5239 8.47266 95.9892 8.47266 95.3447V32.4394C8.47266 31.7813 9.00738 31.2603 9.65179 31.2603H13.1343C13.7925 31.2603 14.3135 31.795 14.3135 32.4394V95.331C14.3272 95.9892 13.7925 96.5239 13.1481 96.5239Z" fill="#56BEDB" stroke="#FEF7EC" stroke-miterlimit="10" stroke-linecap="round" stroke-linejoin="round"/>
<path d="M26.16 96.5239H22.6774C22.0193 96.5239 21.4983 95.9892 21.4983 95.3447V32.4394C21.4983 31.7813 22.033 31.2603 22.6774 31.2603H26.16C26.8181 31.2603 27.3391 31.795 27.3391 32.4394V95.331C27.3391 95.9892 26.8044 96.5239 26.16 96.5239Z" fill="#56BEDB" stroke="#FEF7EC" stroke-miterlimit="10" stroke-linecap="round" stroke-linejoin="round"/>
<path d="M39.1722 96.5239H35.6896C35.0315 96.5239 34.5105 95.9892 34.5105 95.3447V32.4394C34.5105 31.7813 35.0452 31.2603 35.6896 31.2603H39.1722C39.8303 31.2603 40.3513 31.795 40.3513 32.4394V95.331C40.3513 95.9892 39.8303 96.5239 39.1722 96.5239Z" fill="#56BEDB" stroke="#FEF7EC" stroke-miterlimit="10" stroke-linecap="round" stroke-linejoin="round"/>
<path d="M52.1817 96.5239H48.6992C48.041 96.5239 47.52 95.9892 47.52 95.3447V32.4394C47.52 31.7813 48.0547 31.2603 48.6992 31.2603H52.1817C52.8398 31.2603 53.3608 31.795 53.3608 32.4394V95.331C53.3608 95.9892 52.8398 96.5239 52.1817 96.5239Z" fill="#56BEDB" stroke="#FEF7EC" stroke-miterlimit="10" stroke-linecap="round" stroke-linejoin="round"/>
<path d="M65.1942 96.5239H61.7116C61.0535 96.5239 60.5325 95.9892 60.5325 95.3447V32.4394C60.5325 31.7813 61.0672 31.2603 61.7116 31.2603H65.1942C65.8523 31.2603 66.3733 31.795 66.3733 32.4394V95.331C66.3733 95.9892 65.8523 96.5239 65.1942 96.5239Z" fill="#56BEDB" stroke="#FEF7EC" stroke-miterlimit="10" stroke-linecap="round" stroke-linejoin="round"/>
<path d="M78.2064 96.5239H74.7238C74.0657 96.5239 73.5447 95.9892 73.5447 95.3447V32.4394C73.5447 31.7813 74.0794 31.2603 74.7238 31.2603H78.2064C78.8645 31.2603 79.3855 31.795 79.3855 32.4394V95.331C79.3992 95.9892 78.8645 96.5239 78.2064 96.5239Z" fill="#56BEDB" stroke="#FEF7EC" stroke-miterlimit="10" stroke-linecap="round" stroke-linejoin="round"/>
<path d="M91.2186 96.5239H87.736C87.0779 96.5239 86.5569 95.9892 86.5569 95.3447V32.4394C86.5569 31.7813 87.0916 31.2603 87.736 31.2603H91.2186C91.8767 31.2603 92.3977 31.795 92.3977 32.4394V95.331C92.4114 95.9892 91.8767 96.5239 91.2186 96.5239Z" fill="#56BEDB" stroke="#FEF7EC" stroke-miterlimit="10" stroke-linecap="round" stroke-linejoin="round"/>
<path d="M104.228 96.5239H100.746C100.087 96.5239 99.5664 95.9892 99.5664 95.3447V32.4394C99.5664 31.7813 100.101 31.2603 100.746 31.2603H104.228C104.886 31.2603 105.407 31.795 105.407 32.4394V95.331C105.421 95.9892 104.886 96.5239 104.228 96.5239Z" fill="#56BEDB" stroke="#FEF7EC" stroke-miterlimit="10" stroke-linecap="round" stroke-linejoin="round"/>
<path d="M115.692 32.2062H113.896V28.8882H115.692" fill="url(#paint1_linear_57_248)"/>
<path d="M119.159 34.3861C121.279 34.3861 122.998 32.6673 122.998 30.547C122.998 28.4268 121.279 26.708 119.159 26.708C117.039 26.708 115.32 28.4268 115.32 30.547C115.32 32.6673 117.039 34.3861 119.159 34.3861Z" fill="url(#paint2_linear_57_248)"/>
<path d="M119.158 33.3303C120.695 33.3303 121.942 32.0841 121.942 30.547C121.942 29.0098 120.695 27.7637 119.158 27.7637C117.621 27.7637 116.375 29.0098 116.375 30.547C116.375 32.0841 117.621 33.3303 119.158 33.3303Z" stroke="#FEF7EC" stroke-width="0.5" stroke-miterlimit="10" stroke-linecap="round" stroke-linejoin="round"/>
<path d="M33.9608 19.8524C37.2788 11.4065 24.7471 9.15795 33.81 1" stroke="#F5AE3D" stroke-width="2" stroke-miterlimit="10" stroke-linecap="round" stroke-linejoin="round"/>
<path d="M56.6378 19.8524C59.9558 11.4065 47.4241 9.15795 56.487 1" stroke="#F5AE3D" stroke-width="2" stroke-miterlimit="10" stroke-linecap="round" stroke-linejoin="round"/>
<path d="M79.3309 19.8524C82.6489 11.4065 70.1172 9.15795 79.1801 1" stroke="#F5AE3D" stroke-width="2" stroke-miterlimit="10" stroke-linecap="round" stroke-linejoin="round"/>
<defs>
<linearGradient id="paint0_linear_57_248" x1="32.2412" y1="18.4893" x2="91.1871" y2="126.818" gradientUnits="userSpaceOnUse">
<stop offset="0.00249518" stop-color="#28C985"/>
<stop offset="1" stop-color="#18808A"/>
</linearGradient>
<linearGradient id="paint1_linear_57_248" x1="114.034" y1="30.5526" x2="115.61" y2="30.5526" gradientUnits="userSpaceOnUse">
<stop offset="0.00249518" stop-color="#28C985"/>
<stop offset="1" stop-color="#18808A"/>
</linearGradient>
<linearGradient id="paint2_linear_57_248" x1="119.172" y1="25.4352" x2="119.132" y2="38.1922" gradientUnits="userSpaceOnUse">
<stop offset="0.00249518" stop-color="#28C985"/>
<stop offset="1" stop-color="#18808A"/>
</linearGradient>
</defs>
</svg>

<svg width="123" height="102" fill="none" xmlns="http://www.w3.org/2000/svg"><path d="M111.784 101.692H2.097a2.098 2.098 0 0 1-2.098-2.097V28.189c0-1.166.946-2.098 2.098-2.098h109.687c1.165 0 2.097.946 2.097 2.098v71.406a2.08 2.08 0 0 1-2.097 2.097z" fill="url(#a)"/><path d="M13.148 96.524H9.652a1.18 1.18 0 0 1-1.18-1.18V32.44c0-.658.535-1.179 1.18-1.179h3.482c.659 0 1.18.535 1.18 1.18V95.33a1.17 1.17 0 0 1-1.166 1.193zM26.16 96.524h-3.483c-.658 0-1.179-.535-1.179-1.18V32.44c0-.658.535-1.179 1.18-1.179h3.482c.658 0 1.18.535 1.18 1.18V95.33a1.19 1.19 0 0 1-1.18 1.193zM39.172 96.524H35.69c-.658 0-1.18-.535-1.18-1.18V32.44c0-.658.535-1.179 1.18-1.179h3.482c.658 0 1.18.535 1.18 1.18V95.33c0 .658-.522 1.193-1.18 1.193zM52.182 96.524h-3.483a1.18 1.18 0 0 1-1.179-1.18V32.44c0-.658.535-1.179 1.18-1.179h3.482c.658 0 1.179.535 1.179 1.18V95.33c0 .658-.521 1.193-1.18 1.193zM65.194 96.524h-3.482c-.659 0-1.18-.535-1.18-1.18V32.44c0-.658.535-1.179 1.18-1.179h3.482c.658 0 1.18.535 1.18 1.18V95.33c0 .658-.522 1.193-1.18 1.193zM78.206 96.524h-3.482c-.658 0-1.18-.535-1.18-1.18V32.44c0-.658.535-1.179 1.18-1.179h3.482c.659 0 1.18.535 1.18 1.18V95.33a1.173 1.173 0 0 1-1.18 1.193zM91.219 96.524h-3.483c-.658 0-1.18-.535-1.18-1.18V32.44c0-.658.536-1.179 1.18-1.179h3.483c.658 0 1.179.535 1.179 1.18V95.33a1.173 1.173 0 0 1-1.18 1.193zM104.228 96.524h-3.482c-.659 0-1.18-.535-1.18-1.18V32.44c0-.658.535-1.179 1.18-1.179h3.482c.658 0 1.179.535 1.179 1.18V95.33a1.173 1.173 0 0 1-1.179 1.193z" fill="#56BEDB" stroke="#FEF7EC" stroke-miterlimit="10" stroke-linecap="round" stroke-linejoin="round"/><path d="M115.692 32.206h-1.796v-3.318h1.796" fill="url(#b)"/><path d="M119.159 34.386a3.84 3.84 0 1 0 0-7.678 3.84 3.84 0 0 0 0 7.678z" fill="url(#c)"/><path d="M119.158 33.33a2.784 2.784 0 1 0 0-5.568 2.784 2.784 0 0 0 0 5.568z" stroke="#FEF7EC" stroke-width=".5" stroke-miterlimit="10" stroke-linecap="round" stroke-linejoin="round"/><path d="M33.96 19.852C37.28 11.406 24.748 9.158 33.81 1M56.638 19.852C59.956 11.406 47.424 9.158 56.487 1M79.33 19.852C82.65 11.406 70.118 9.158 79.18 1" stroke="#F5AE3D" stroke-width="2" stroke-miterlimit="10" stroke-linecap="round" stroke-linejoin="round"/><defs><linearGradient id="a" x1="32.241" y1="18.489" x2="91.187" y2="126.818" gradientUnits="userSpaceOnUse"><stop offset=".002" stop-color="#28C985"/><stop offset="1" stop-color="#18808A"/></linearGradient><linearGradient id="b" x1="114.034" y1="30.553" x2="115.61" y2="30.553" gradientUnits="userSpaceOnUse"><stop offset=".002" stop-color="#28C985"/><stop offset="1" stop-color="#18808A"/></linearGradient><linearGradient id="c" x1="119.172" y1="25.435" x2="119.132" y2="38.192" gradientUnits="userSpaceOnUse"><stop offset=".002" stop-color="#28C985"/><stop offset="1" stop-color="#18808A"/></linearGradient></defs></svg>
